images/indikatorenset/4152.svg

<?xml version="1.0" standalone="no"?><!DOCTYPE svg PUBLIC "-//W3C//DTD SVG 1.1//EN" "http://www.w3.org/Graphics/SVG/1.1/DTD/svg11.dtd"><svg xmlns:xlink="http://www.w3.org/1999/xlink" version="1.1" class="highcharts-root" style="font-family:Arial;font-size:12px;" xmlns="http://www.w3.org/2000/svg" width="485" height="415"><desc>Created with Highcharts 5.0.7</desc><defs><clipPath id="highcharts-m8vyxqy-1"><rect x="0" y="0" width="392" height="280" fill="none"></rect></clipPath></defs><rect fill="#fbfbfb" class="highcharts-background" x="0" y="0" width="485" height="415" rx="0" ry="0"></rect><rect fill="none" class="highcharts-plot-background" x="52" y="75" width="392" height="280"></rect><g class="highcharts-grid highcharts-xaxis-grid "><path fill="none" class="highcharts-grid-line" d="M 93.5 75 L 93.5 355" opacity="1"></path><path fill="none" class="highcharts-grid-line" d="M 170.5 75 L 170.5 355" opacity="1"></path><path fill="none" class="highcharts-grid-line" d="M 247.5 75 L 247.5 355" opacity="1"></path><path fill="none" class="highcharts-grid-line" d="M 324.5 75 L 324.5 355" opacity="1"></path><path fill="none" class="highcharts-grid-line" d="M 401.5 75 L 401.5 355" opacity="1"></path></g><g class="highcharts-grid highcharts-yaxis-grid "><path fill="none" stroke="#e6e6e6" stroke-width="1" class="highcharts-grid-line" d="M 52 355.5 L 444 355.5" opacity="1"></path><path fill="none" stroke="#e6e6e6" stroke-width="1" class="highcharts-grid-line" d="M 52 285.5 L 444 285.5" opacity="1"></path><path fill="none" stroke="#e6e6e6" stroke-width="1" class="highcharts-grid-line" d="M 52 215.5 L 444 215.5" opacity="1"></path><path fill="none" stroke="#e6e6e6" stroke-width="1" class="highcharts-grid-line" d="M 52 145.5 L 444 145.5" opacity="1"></path><path fill="none" stroke="#e6e6e6" stroke-width="1" class="highcharts-grid-line" d="M 52 74.5 L 444 74.5" opacity="1"></path></g><g class="highcharts-grid highcharts-yaxis-grid "><path fill="none" stroke="#e6e6e6" stroke-width="1" class="highcharts-grid-line" d="M 52 355.5 L 444 355.5" opacity="1"></path><path fill="none" stroke="#e6e6e6" stroke-width="1" class="highcharts-grid-line" d="M 52 285.5 L 444 285.5" opacity="1"></path><path fill="none" stroke="#e6e6e6" stroke-width="1" class="highcharts-grid-line" d="M 52 215.5 L 444 215.5" opacity="1"></path><path fill="none" stroke="#e6e6e6" stroke-width="1" class="highcharts-grid-line" d="M 52 145.5 L 444 145.5" opacity="1"></path><path fill="none" stroke="#e6e6e6" stroke-width="1" class="highcharts-grid-line" d="M 52 74.5 L 444 74.5" opacity="1"></path></g><rect fill="none" class="highcharts-plot-border" x="52" y="75" width="392" height="280"></rect><g class="highcharts-axis highcharts-xaxis "><path fill="none" class="highcharts-tick" stroke="#FFFFFF" stroke-width="1" d="M 93.5 355 L 93.5 365" opacity="1"></path><path fill="none" class="highcharts-tick" stroke="#FFFFFF" stroke-width="1" d="M 170.5 355 L 170.5 365" opacity="1"></path><path fill="none" class="highcharts-tick" stroke="#FFFFFF" stroke-width="1" d="M 247.5 355 L 247.5 365" opacity="1"></path><path fill="none" class="highcharts-tick" stroke="#FFFFFF" stroke-width="1" d="M 324.5 355 L 324.5 365" opacity="1"></path><path fill="none" class="highcharts-tick" stroke="#FFFFFF" stroke-width="1" d="M 401.5 355 L 401.5 365" opacity="1"></path><path fill="none" class="highcharts-axis-line" stroke="#ccd6eb" stroke-width="1" d="M 52 355.5 L 444 355.5"></path></g><g class="highcharts-axis highcharts-yaxis "><path fill="none" class="highcharts-axis-line" d="M 52 75 L 52 355"></path></g><g class="highcharts-axis highcharts-yaxis "><path fill="none" class="highcharts-axis-line" d="M 444 75 L 444 355"></path></g><g class="highcharts-series-group"><g class="highcharts-series highcharts-series-0 highcharts-column-series highcharts-color-undefined highcharts-tracker" transform="translate(52,75) scale(1 1)" clip-path="url(#highcharts-m8vyxqy-1)"><rect x="22.5" y="117.5" width="38" height="163" fill="#923f8d" class="highcharts-point" stroke="#ffffff" stroke-width="1"></rect><rect x="99.5" y="70.5" width="38" height="210" fill="#923f8d" class="highcharts-point" stroke="#ffffff" stroke-width="1"></rect><rect x="176.5" y="40.5" width="38" height="240" fill="#923f8d" class="highcharts-point" stroke="#ffffff" stroke-width="1"></rect><rect x="254.5" y="19.5" width="38" height="261" fill="#923f8d" class="highcharts-point" stroke="#ffffff" stroke-width="1"></rect><rect x="331.5" y="1.5" width="38" height="279" fill="#923f8d" class="highcharts-point" stroke="#ffffff" stroke-width="1"></rect></g><g class="highcharts-markers highcharts-series-0 highcharts-column-series highcharts-color-undefined " transform="translate(52,75) scale(1 1)" clip-path="none"></g><g class="highcharts-series highcharts-series-1 highcharts-line-series highcharts-color-undefined " transform="translate(52,75) scale(1 1)" clip-path="url(#highcharts-m8vyxqy-1)"><path fill="none" d="M 41.66929133858 140 L 118.83464566929 105 L 196 81.66666666666666 L 273.16535433071 58.33333333333334 L 350.33070866142 46.66666666666666" class="highcharts-graph" stroke="#cd9c00" stroke-width="2" stroke-linejoin="round" stroke-linecap="round"></path><path fill="none" d="M 31.669291338580003 140 L 41.66929133858 140 L 118.83464566929 105 L 196 81.66666666666666 L 273.16535433071 58.33333333333334 L 350.33070866142 46.66666666666666 L 360.33070866142 46.66666666666666" stroke-linejoin="round" visibility="visible" stroke="rgba(192,192,192,0.0001)" stroke-width="22" class="highcharts-tracker"></path></g><g class="highcharts-markers highcharts-series-1 highcharts-line-series highcharts-color-undefined highcharts-tracker" transform="translate(52,75) scale(1 1)" clip-path="none"><path fill="#cd9c00" d="M 45 140 A 4 4 0 1 1 44.99999800000017 139.99600000066667 Z" class="highcharts-point"></path><path fill="#cd9c00" d="M 122 105 A 4 4 0 1 1 121.99999800000016 104.99600000066667 Z" class="highcharts-point"></path><path fill="#cd9c00" d="M 200 82 A 4 4 0 1 1 199.99999800000018 81.99600000066667 Z" class="highcharts-point"></path><path fill="#cd9c00" d="M 277 58 A 4 4 0 1 1 276.9999980000002 57.99600000066666 Z" class="highcharts-point"></path><path fill="#cd9c00" d="M 354 47 A 4 4 0 1 1 353.9999980000002 46.99600000066666 Z" class="highcharts-point"></path></g></g><text x="10" text-anchor="start" class="highcharts-title" style="color:#000000;font-size:14px;font-weight:bold;fill:#000000;" y="21"><tspan>4.1.a Haushalte mit Familienmietzinsbeiträgen</tspan></text><g class="highcharts-legend" transform="translate(10,35)"><rect fill="none" class="highcharts-legend-box" rx="0" ry="0" x="0" y="0" width="337" height="25" visibility="visible"></rect><g><g><g class="highcharts-legend-item highcharts-column-series highcharts-color-undefined highcharts-series-0" transform="translate(8,3)"><text x="21" style="color:#333333;font-size:12px;font-weight:normal;cursor:pointer;fill:#333333;" text-anchor="start" y="15"><tspan>Anzahl Haushalte</tspan></text><rect x="2" y="4" width="12" height="12" fill="#923f8d" class="highcharts-point"></rect></g><g class="highcharts-legend-item highcharts-line-series highcharts-color-undefined highcharts-series-1" transform="translate(143,3)"><path fill="none" d="M 0 11 L 16 11" class="highcharts-graph" stroke="#cd9c00" stroke-width="2"></path><path fill="#cd9c00" d="M 12 11 A 4 4 0 1 1 11.999998000000167 10.996000000666664 Z" class="highcharts-point"></path><text x="21" y="15" style="color:#333333;font-size:12px;font-weight:normal;cursor:pointer;fill:#333333;" text-anchor="start"><tspan>Anteil in Prozent (rechte Skala)</tspan></text></g></g></g></g><g class="highcharts-axis-labels highcharts-xaxis-labels "><text x="93.66929133858046" style="color:#000000;cursor:default;font-size:11px;fill:#000000;" text-anchor="middle" transform="translate(0,0)" y="374" opacity="1"><tspan>2011</tspan></text><text x="170.83464566929024" style="color:#000000;cursor:default;font-size:11px;fill:#000000;" text-anchor="middle" transform="translate(0,0)" y="374" opacity="1"><tspan>2012</tspan></text><text x="247.99999999999997" style="color:#000000;cursor:default;font-size:11px;fill:#000000;" text-anchor="middle" transform="translate(0,0)" y="374" opacity="1"><tspan>2013</tspan></text><text x="325.16535433070976" style="color:#000000;cursor:default;font-size:11px;fill:#000000;" text-anchor="middle" transform="translate(0,0)" y="374" opacity="1"><tspan>2014</tspan></text><text x="402.3307086614195" style="color:#000000;cursor:default;font-size:11px;fill:#000000;" text-anchor="middle" transform="translate(0,0)" y="374" opacity="1"><tspan>2015</tspan></text></g><g class="highcharts-axis-labels highcharts-yaxis-labels "><text x="37" style="color:#000000;cursor:default;font-size:11px;fill:#000000;" text-anchor="end" transform="translate(0,0)" y="360" opacity="1"><tspan>0</tspan></text><text x="37" style="color:#000000;cursor:default;font-size:11px;fill:#000000;" text-anchor="end" transform="translate(0,0)" y="290" opacity="1"><tspan>500</tspan></text><text x="37" style="color:#000000;cursor:default;font-size:11px;fill:#000000;" text-anchor="end" transform="translate(0,0)" y="220" opacity="1"><tspan>1 000</tspan></text><text x="37" style="color:#000000;cursor:default;font-size:11px;fill:#000000;" text-anchor="end" transform="translate(0,0)" y="149" opacity="1"><tspan>1 500</tspan></text><text x="37" style="color:#000000;cursor:default;font-size:11px;fill:#000000;" text-anchor="end" transform="translate(0,0)" y="80" opacity="1"><tspan>2 000</tspan></text></g><g class="highcharts-axis-labels highcharts-yaxis-labels "><text x="459" style="color:#000000;cursor:default;font-size:11px;fill:#000000;" text-anchor="start" transform="translate(0,0)" y="360" opacity="1"><tspan>0%</tspan></text><text x="459" style="color:#000000;cursor:default;font-size:11px;fill:#000000;" text-anchor="start" transform="translate(0,0)" y="290" opacity="1"><tspan>1%</tspan></text><text x="459" style="color:#000000;cursor:default;font-size:11px;fill:#000000;" text-anchor="start" transform="translate(0,0)" y="220" opacity="1"><tspan>1%</tspan></text><text x="459" style="color:#000000;cursor:default;font-size:11px;fill:#000000;" text-anchor="start" transform="translate(0,0)" y="150" opacity="1"><tspan>2%</tspan></text><text x="459" style="color:#000000;cursor:default;font-size:11px;fill:#000000;" text-anchor="start" transform="translate(0,0)" y="80" opacity="1"><tspan>2%</tspan></text></g><text x="10" class="highcharts-credits" text-anchor="start" style="cursor:default;color:#000000;font-size:10px;fill:#000000;" y="400"><tspan>Quelle: Statistisches Amt Basel-Stadt, Basler Informationssystem Sozialleistungen BISS</tspan></text></svg>

<svg class="highcharts-root" xmlns="http://www.w3.org/2000/svg" viewBox="0 0 485 415" font-family="Arial" font-size="12">
    <defs>
        <clipPath id="a">
            <path fill="none" d="M0 0h392v280H0z"/>
        </clipPath>
    </defs>
    <rect fill="#fbfbfb" class="highcharts-background" width="485" height="415" rx="0" ry="0"/>
    <path fill="none" class="highcharts-plot-background" d="M52 75h392v280H52z"/>
    <g class="highcharts-grid highcharts-xaxis-grid">
        <path fill="none" class="highcharts-grid-line" d="M93.5 75v280m77-280v280m77-280v280m77-280v280m77-280v280"/>
    </g>
    <g class="highcharts-grid highcharts-yaxis-grid">
        <path fill="none" stroke="#e6e6e6" class="highcharts-grid-line" d="M52 355.5h392m-392-70h392m-392-70h392m-392-70h392m-392-71h392"/>
    </g>
    <g class="highcharts-grid highcharts-yaxis-grid">
        <path fill="none" stroke="#e6e6e6" class="highcharts-grid-line" d="M52 355.5h392m-392-70h392m-392-70h392m-392-70h392m-392-71h392"/>
    </g>
    <path fill="none" class="highcharts-plot-border" d="M52 75h392v280H52z"/>
    <g class="highcharts-axis highcharts-xaxis">
        <path fill="none" class="highcharts-tick" stroke="#FFF" d="M93.5 355v10m77-10v10m77-10v10m77-10v10m77-10v10"/>
        <path fill="none" class="highcharts-axis-line" stroke="#ccd6eb" d="M52 355.5h392"/>
    </g>
    <g class="highcharts-axis highcharts-yaxis">
        <path fill="none" class="highcharts-axis-line" d="M52 75v280"/>
    </g>
    <g class="highcharts-axis highcharts-yaxis">
        <path fill="none" class="highcharts-axis-line" d="M444 75v280"/>
    </g>
    <g class="highcharts-series-group">
        <g class="highcharts-series highcharts-series-0 highcharts-column-series highcharts-color-undefined highcharts-tracker" transform="translate(52 75)" clip-path="url(#a)">
            <path fill="#923f8d" class="highcharts-point" stroke="#fff" d="M22.5 117.5h38v163h-38zm77-47h38v210h-38zm77-30h38v240h-38zm78-21h38v261h-38zm77-18h38v279h-38z"/>
        </g>
        <g class="highcharts-series highcharts-series-1 highcharts-line-series highcharts-color-undefined" transform="translate(52 75)" clip-path="url(#a)">
            <path fill="none" d="M41.67 140l77.165-35L196 81.667l77.165-23.334 77.166-11.666" class="highcharts-graph" stroke="#cd9c00" stroke-width="2" stroke-linejoin="round" stroke-linecap="round"/>
            <path fill="none" d="M31.67 140h10l77.165-35L196 81.667l77.165-23.334 77.166-11.666h10" stroke-linejoin="round" stroke="rgba(192,192,192,0.0001)" stroke-width="22" class="highcharts-tracker"/>
        </g>
        <g class="highcharts-markers highcharts-series-1 highcharts-line-series highcharts-color-undefined highcharts-tracker">
            <path fill="#cd9c00" d="M97 215a4 4 0 1 1 0-.004zm77-35a4 4 0 1 1 0-.004zm78-23a4 4 0 1 1 0-.004zm77-24a4 4 0 1 1 0-.004zm77-11a4 4 0 1 1 0-.004z" class="highcharts-point"/>
        </g>
    </g>
    <text x="10" class="highcharts-title" y="21" color="#000" font-size="14" font-weight="700">
        <tspan>4.1.a Haushalte mit Familienmietzinsbeiträgen</tspan>
    </text>
    <g class="highcharts-legend" transform="translate(10 35)">
        <rect fill="none" class="highcharts-legend-box" rx="0" ry="0" width="337" height="25"/>
        <g class="highcharts-legend-item highcharts-column-series highcharts-color-undefined highcharts-series-0">
            <text x="21" y="15" color="#333" font-weight="400" cursor="pointer" fill="#333" transform="translate(8 3)">
                <tspan>Anzahl Haushalte</tspan>
            </text>
            <path fill="#923f8d" class="highcharts-point" d="M10 7h12v12H10z"/>
        </g>
        <g class="highcharts-legend-item highcharts-line-series highcharts-color-undefined highcharts-series-1">
            <path fill="none" d="M143 14h16" class="highcharts-graph" stroke="#cd9c00" stroke-width="2"/>
            <path fill="#cd9c00" d="M155 14a4 4 0 1 1 0-.004z" class="highcharts-point"/>
            <text x="21" y="15" color="#333" font-weight="400" cursor="pointer" fill="#333" transform="translate(143 3)">
                <tspan>Anteil in Prozent (rechte Skala)</tspan>
            </text>
        </g>
    </g>
    <g class="highcharts-axis-labels highcharts-xaxis-labels" text-anchor="middle" color="#000" cursor="default" font-size="11">
        <text x="93.669" y="374">
            <tspan>2011</tspan>
        </text>
        <text x="170.835" y="374">
            <tspan>2012</tspan>
        </text>
        <text x="248" y="374">
            <tspan>2013</tspan>
        </text>
        <text x="325.165" y="374">
            <tspan>2014</tspan>
        </text>
        <text x="402.331" y="374">
            <tspan>2015</tspan>
        </text>
    </g>
    <g class="highcharts-axis-labels highcharts-yaxis-labels" text-anchor="end" color="#000" cursor="default" font-size="11">
        <text x="37" y="360">
            <tspan>0</tspan>
        </text>
        <text x="37" y="290">
            <tspan>500</tspan>
        </text>
        <text x="37" y="220">
            <tspan>1 000</tspan>
        </text>
        <text x="37" y="149">
            <tspan>1 500</tspan>
        </text>
        <text x="37" y="80">
            <tspan>2 000</tspan>
        </text>
    </g>
    <g class="highcharts-axis-labels highcharts-yaxis-labels" color="#000" cursor="default" font-size="11">
        <text x="459" y="360">
            <tspan>0%</tspan>
        </text>
        <text x="459" y="290">
            <tspan>1%</tspan>
        </text>
        <text x="459" y="220">
            <tspan>1%</tspan>
        </text>
        <text x="459" y="150">
            <tspan>2%</tspan>
        </text>
        <text x="459" y="80">
            <tspan>2%</tspan>
        </text>
    </g>
    <text x="10" class="highcharts-credits" y="400" cursor="default" color="#000" font-size="10">
        <tspan>Quelle: Statistisches Amt Basel-Stadt, Basler Informationssystem Sozialleistungen BISS</tspan>
    </text>
</svg>
